X:142
T:Reel 142
M:4/4
K:Dmaj
L:1/8
AG|FDEC A,DD2|A,DCD EFGE|FDEC A,2DC| (3DED EC A,2AG|FDED A,DCD|EC (3CB,A, EA,CA,|FDEC DFEG|FDEC D2|FE|DdBc d2AF|EFED CEA,C|Dddc d2cd|ecAc BGBd|Addc dfed|cABc d2AF|GEFD EFGE|FDEC D2|
